X:1
T:Title
%%score { 1 | 2 }
L:1/8
M:4/4
K:Ab
V:1 treble nm="Grand Piano"
V:2 bass 
V:1
 z4 z2[Q:1/4=84] [A,C][B,D] | [CE][CE][DF][DG] [CA]<[Ec] [CA][EG] | %2
 [DF][EG][FA][DF] [CE]2 [A,C][B,D] | [CE][CE][DF][DG] [CA]<[Ec] [CA][Ec] | %4
[M:3/4] [=DB][DA] [DG]F B2 |[M:5/16] c3/2B |[M:4/4] [CA][DB][CA][DF] [CE]<[CA] [CA][EG] | %7
 [DF][EG][FA][DF] [CE]2 [A,C][B,D] | [CE][CE][DF][DG] [CA]<[Ec] [CA][Ec] |[M:3/4] cB FG [CA]2 | %10
[M:1/4] cd |[M:4/4] e<c [EAc][DEB] [CEA]<[Ec] [Ec][=EB] | [FA][FB][FA][DF] [CE]2 [CE][CE] | %13
 [DF][EG][EA]B c<c Ac |[M:3/4] cB [=DF][DB] B2 |[M:5/16] c3/2B | %16
[M:4/4] [CA][DB][CA][DF] [CE]<[CA] [CA][EG] | [DF][EG][FA][DF] [CE]2 [A,C][B,D] | %18
 [CE][CE][DF][DG] [CA]<[Ec] [CA][Ec] |[M:7/4] cBFG [CA]2 z2 z2 z4 |] %20
V:2
 z4 z2 [A,,E,][A,,E,] | [A,,A,][A,,A,][A,,A,][A,,A,] [A,,A,]<[A,,A,] [A,,A,][C,A,] | %2
 [D,A,][D,A,][D,D][D,A,] [A,,A,]2 [A,,E,][A,,E,] | %3
 [A,,A,][A,,A,][A,,A,][A,,A,] [A,,A,]<[A,,A,] [A,,A,][A,,A,] | %4
[M:3/4] [B,,A,][B,,F,] [B,,B,][F,A,=D] [E,G,E]2 |[M:5/16] [E,G,E]3/2[E,G,D] | %6
[M:4/4] [A,,A,][A,,A,][A,,A,][A,,A,] [A,,A,]<[A,,E,] [A,,E,][C,A,] | %7
 [D,A,][D,A,][D,D][D,A,] [A,,A,]2 [A,,E,][A,,E,] | %8
 [A,,A,][A,,A,][A,,A,][A,,A,] [A,,A,]<[A,,A,] [A,,A,][A,,A,] | %9
[M:3/4] [E,A,E][E,G,D] [E,A,D][E,B,D] [A,,A,]2 |[M:1/4][K:treble] [A,A][A,B,A] | %11
[M:4/4] [A,CA]<[A,EA][K:bass] A,,A,, A,,<[A,,A,] [A,,A,][C,A,] | %12
 [D,A,][D,D][D,D][D,A,] [A,,A,]2 [A,,A,][A,,A,] | %13
 [D,A,][D,A,][C,A,][E,G,E] [A,E]<[A,E] [A,C][A,E] | %14
[M:3/4] [F,A,=D][F,A,D] [B,,A,][B,,A,] [E,G,E]2 |[M:5/16] [E,G,E]3/2[E,G,D] | %16
[M:4/4] [A,,A,][A,,A,][A,,A,][A,,A,] [A,,A,]<[A,,E,] [A,,E,][C,A,] | %17
 [D,A,][D,A,][D,D][D,A,] [A,,A,]2 [A,,E,][A,,E,] | %18
 [A,,A,][A,,A,][A,,A,][A,,A,] [A,,A,]<[A,,A,] [A,,A,][A,,A,] | %19
[M:7/4] [E,A,E][E,G,D][E,A,D][E,B,D] [A,,A,]2 z2 z2 z4 |] %20

